X: 1
P: Tantz, Tantz, Yidelekh
C: Abe Schwartz orchestra 1917
C: from Compleat Klezmer
C: the "Hava Nagilah of the 19th Century"
R: freylach
M: 4/4
L: 1/8
K: Gm
|: "D"DE^FG ABAG|"D"^F2 FD "Gm"G2 G2|"D"A2 A2 cBAG|"D"^F2 FD "Gm"G4|
"D"DE^FG ABAG|"D"^F2 FD "Gm"G2 G2|"D"^F2 F2 "Cm"EDEC| [1"D"D8 :| [2 "D"D4 "F7"=F4||
|: "Bb"Bc d2 d2 d2|"F"cdcA =F4|"F"FGAB cdec|"Bb"d4 "D"dcBA|
"Gm"GA B2 B2 B2|"D"A2 A2 D4|"D"DE^FG ABAF| [1 "Gm"G4 "F7"=F4 :| [2 "Gm"G8 ||
|: "D"D2 ^F2 D2 F2|"Gm"G2 G2 "Cm"cBAG|"D"^F2 F2 "Gm"GFGB|"D"A2 d2 d4|
"D"D2 ^F2 D2 F2|"Gm"G2 G2 "Cm"cBAG|"D"^F2 F2 "Cm"EDEC|"D"D8 :|

